X: 8943
T: Curragh Races, The
R: reel
M: 4/4
K: Adorian
|:eAcA eAcA|~G2BG dGBd|eAcA eAcA|dBGB cA~A2|
eAcA eAcA|~G2BG dGBd|~c2cA ~B3c|1 dBGB cA~A2:|2 dBGB cAAB||
|:c2ec gcec|cdeg dBGB|c2ec gceg|dBGB cAAB|
c2ec gcec|cdeg dBGB|~c2cA ~B3c|1 dBGB cAAB:|2 dBGB cAA2||

